images/ic-alignments.svg

<svg height="18" viewBox="0 0 18 18" width="18" xmlns="http://www.w3.org/2000/svg"><path d="m0 0h18v2h-18zm0 16h18v2h-18zm0-8h18v2h-18zm6 4h12v2h-12zm0-8h12v2h-12z" fill="#3e4241"/></svg>

<?xml version="1.0" encoding="UTF-8"?>
<svg width="18px" height="18px" viewBox="0 0 18 18" version="1.1" xmlns="http://www.w3.org/2000/svg" xmlns:xlink="http://www.w3.org/1999/xlink">
    <!-- Generator: Sketch 54.1 (76490) - https://sketchapp.com -->
    <title>ic-alignments</title>
    <desc>Created with Sketch.</desc>
    <g id="Page-1" stroke="none" stroke-width="1" fill="none" fill-rule="evenodd">
        <g id="ic-alignments" fill="#3E4241" fill-rule="nonzero">
            <path d="M0,0 L18,0 L18,2 L0,2 L0,0 Z M0,16 L18,16 L18,18 L0,18 L0,16 Z M0,8 L18,8 L18,10 L0,10 L0,8 Z M6,12 L18,12 L18,14 L6,14 L6,12 Z M6,4 L18,4 L18,6 L6,6 L6,4 Z" id="Shape"></path>
        </g>
    </g>
</svg>
